X: 4302
T: The Maids of Arrochar
%R: air, jig
N: This is version 1, for ABC software that doesn't understand voice overlays.
B: Niel Gow & Sons "A Fourth Collection of Strathspey Reels, etc." v.4 p.30 #2
Z: 2022 John Chambers <jc:trillian.mit.edu>
M: 6/8
L: 1/8
Q: "Slow with Expres.n"
K: D
% - - - - - - - - - -
V: 1 staves=2
D/E/ |\
!p!{DE}F>ED {DE}F>ED | (FA).[AE] [A2F2]Td/>e/ | {e}f>ed {de}f>ed | {f}e2d B2{c}d ||\
!f!{G}F>ED {DE}F>ED | (FA).[AE] [A2F2] Td/>e/ | (fd).A (BF).A | {F}TE2D D2 :|
|: A/G/ |\
(FA).B (FA).B | Td>ef/e/ (dB).A | (FA).B (FA).f |!p! {f}e2d B2A ||\
(~df).a fdA | (TB/A/)(B/c/).d/.B/ AFD | (Fd).A (BF).A | {F}TE2D D2 :|
% - - - - - - - - - -
% Voice 2 preserves the staff layout in the book.
V: 2 clef=bass middle=d
z | !p!(Dd)z (Dd)z | Ddc d3 | (dd')z (Bb)z | e2f B3 ||\
!f!Ddd Ddd | Ddc d3 | d2f gfd | a2f [d2f2] :||:
z | dfg dfg & d3 d3 | dd'z bgf | d2g d2d' | !p!c'2d' b2(c' ||\
d'3) d2f | ggg f2d | d2f gfd | A2F [D2d2] :|


